outputs/icons/communication/add_call_round.svg

<svg width="1200" height="1200" viewBox="0 0 1200 1200" fill="none" xmlns="http://www.w3.org/2000/svg"><g clip-path="url(#clip0_225_2419)"><path d="M699.99 400H799.99V500C799.99 527.5 822.49 550 849.99 550C877.49 550 899.99 527.5 899.99 500V400H999.99C1027.49 400 1049.99 377.5 1049.99 350C1049.99 322.5 1027.49 300 999.99 300H899.99V200C899.99 172.5 877.49 150 849.99 150C822.49 150 799.99 172.5 799.99 200V300H699.99C672.49 300 649.99 322.5 649.99 350C649.99 377.5 672.49 400 699.99 400ZM960.49 763.5L833.49 749C802.99 745.5 772.99 756 751.49 777.5L659.49 869.5C517.99 797.5 401.99 682 329.989 540L422.49 447.5C443.99 426 454.49 395.5 450.99 365.5L436.489 239.5C430.99 189 387.989 150.5 337.49 150.5H250.99C194.489 150.5 147.49 197.5 150.989 254C177.489 681 518.99 1022 945.49 1048.5C1001.99 1052 1048.99 1005 1048.99 948.5V862C1049.49 812 1010.99 769 960.49 763.5Z" fill="#1D1E23"/></g><defs><clipPath id="clip0_225_2419"><path width="24" fill="white" d="M0 0H1200V1200H0V0z"/></clipPath></defs></svg>

<svg xmlns="http://www.w3.org/2000/svg" width="1200" height="1200" fill="none"><g clip-path="url(#a)"><path fill="#000" d="M700 400h100v100c0 27.5 22.5 50 50 50s50-22.5 50-50V400h100c27.5 0 50-22.5 50-50s-22.5-50-50-50H900V200c0-27.5-22.5-50-50-50s-50 22.5-50 50v100H700c-27.5 0-50 22.5-50 50s22.5 50 50 50m260.5 363.5-127-14.5c-30.5-3.5-60.5 7-82 28.5l-92 92C518 797.5 402.001 682 330.002 540l92.5-92.5c21.499-21.5 32-52 28.5-82l-14.501-126c-5.5-50.5-48.499-89-99-89h-86.499c-56.501 0-103.501 47-100 103.5C177.501 681 519 1022 945.5 1048.5c56.5 3.5 103.5-43.5 103.5-100V862c.5-50-38-93-88.5-98.5"/></g><defs><clipPath id="a"><path fill="#fff" d="M0 0h1200v1200H0z"/></clipPath></defs></svg>
